app/assets/images/payment_icons/qliro.svg

<svg xmlns="http://www.w3.org/2000/svg" role="img" viewBox="0 0 38 24" width="38" height="24" aria-labelledby="pi-qliro">
<title id="pi-qliro">Qliro</title>
<path opacity="0.07" d="M3 0H35C36.6569 0 38 1.34315 38 3V21C38 22.6569 36.6569 24 35 24H3C1.34315 24 0 22.6569 0 21V3C0 1.34314 1.34315 0 3 0Z" fill="black"/>
<path d="M1 3C1 1.89543 1.89543 1 3 1H35C36.1046 1 37 1.89543 37 3V21C37 22.1046 36.1046 23 35 23H3C1.89543 23 1 22.1046 1 21V3Z" fill="black"/>
<path d="M10.5239 15.0428H10.4421L11.0804 16.4013H9.46008L8.82586 15.0428H8.43305C7.95841 15.0428 7.59015 14.916 7.33646 14.6623C7.08278 14.4086 6.95593 14.0444 6.95593 13.5657V9.43305C6.95593 8.95841 7.08278 8.59015 7.33646 8.33647C7.59015 8.08278 7.95432 7.95593 8.43305 7.95593H10.5239C10.9986 7.95593 11.3668 8.08278 11.6205 8.33647C11.8742 8.59015 12.001 8.95841 12.001 9.43305V13.5657C12.001 14.0404 11.8742 14.4086 11.6205 14.6623C11.3668 14.916 11.0027 15.0428 10.5239 15.0428ZM8.49443 9.52307V13.4757C8.49443 13.6435 8.57626 13.7253 8.74402 13.7253H10.213C10.3807 13.7253 10.4626 13.6435 10.4626 13.4757V9.52307C10.4626 9.35531 10.3807 9.27347 10.213 9.27347H8.74402C8.57626 9.27347 8.49443 9.35531 8.49443 9.52307Z" fill="#00FFC2"/>
<path d="M12.8767 15.0019V7.99685H14.4152V13.668H17.0912V15.0019H12.8767Z" fill="#00FFC2"/>
<path d="M17.7827 15.0019V7.99685H19.3212V15.0019H17.7827Z" fill="#00FFC2"/>
<path d="M23.593 15.0019L22.7992 12.3668H21.813V15.0019H20.2746V7.99685H23.7444C24.219 7.99685 24.5872 8.12369 24.8409 8.37738C25.0946 8.63107 25.2215 8.99933 25.2215 9.47397V10.8897C25.2215 11.6262 24.931 12.0927 24.3458 12.2891L25.2501 15.0019H23.593ZM23.4334 9.30212H21.813V11.0616H23.4334C23.6011 11.0616 23.683 10.9797 23.683 10.812V9.5558C23.683 9.38395 23.6011 9.30212 23.4334 9.30212Z" fill="#00FFC2"/>
<path d="M29.5669 15.0428H27.476C27.0014 15.0428 26.6331 14.916 26.3794 14.6623C26.1257 14.4086 25.9989 14.0444 25.9989 13.5657V9.43305C25.9989 8.95841 26.1257 8.59015 26.3794 8.33647C26.6331 8.08278 26.9973 7.95593 27.476 7.95593H29.5669C30.0415 7.95593 30.4098 8.08278 30.6635 8.33647C30.9172 8.59015 31.044 8.95841 31.044 9.43305V13.5657C31.044 14.0404 30.9172 14.4086 30.6635 14.6623C30.4057 14.916 30.0415 15.0428 29.5669 15.0428ZM27.5374 9.52307V13.4757C27.5374 13.6435 27.6192 13.7253 27.787 13.7253H29.2559C29.4237 13.7253 29.5055 13.6435 29.5055 13.4757V9.52307C29.5055 9.35531 29.4196 9.27347 29.2559 9.27347H27.787C27.6192 9.27347 27.5374 9.35531 27.5374 9.52307Z" fill="#00FFC2"/>
</svg>

<svg xmlns="http://www.w3.org/2000/svg" role="img" viewBox="0 0 38 24" width="38" height="24" aria-labelledby="pi-qliro"><title id="pi-qliro">Qliro</title><path d="M3,0h32c1.66,0,3,1.34,3,3v18c0,1.66-1.34,3-3,3H3c-1.66,0-3-1.34-3-3V3C0,1.34,1.34,0,3,0Z" style="fill:#000; isolation:isolate; opacity:.07; stroke-width:0px;"/><path d="M1,3c0-1.1.9-2,2-2h32c1.1,0,2,.9,2,2v18c0,1.1-.9,2-2,2H3c-1.1,0-2-.9-2-2V3Z" style="fill:#000; stroke-width:0px;"/><path d="M10.52,15.04h-.08l.64,1.36h-1.62l-.63-1.36h-.39c-.47,0-.84-.13-1.1-.38-.25-.25-.38-.62-.38-1.1v-4.13c0-.47.13-.84.38-1.1s.62-.38,1.1-.38h2.09c.47,0,.84.13,1.1.38.25.25.38.62.38,1.1v4.13c0,.47-.13.84-.38,1.1-.25.25-.62.38-1.1.38ZM8.49,9.52v3.95c0,.17.08.25.25.25h1.47c.17,0,.25-.08.25-.25v-3.95c0-.17-.08-.25-.25-.25h-1.47c-.17,0-.25.08-.25.25ZM12.88,15v-7.01h1.54v5.67h2.68v1.33h-4.21ZM17.78,15v-7.01h1.54v7.01h-1.54ZM23.59,15l-.79-2.64h-.99v2.64h-1.54v-7.01h3.47c.47,0,.84.13,1.1.38.25.25.38.62.38,1.1v1.42c0,.74-.29,1.2-.88,1.4l.9,2.71h-1.66ZM23.43,9.3h-1.62v1.76h1.62c.17,0,.25-.08.25-.25v-1.26c0-.17-.08-.25-.25-.25ZM29.57,15.04h-2.09c-.47,0-.84-.13-1.1-.38s-.38-.62-.38-1.1v-4.13c0-.47.13-.84.38-1.1.25-.25.62-.38,1.1-.38h2.09c.47,0,.84.13,1.1.38.25.25.38.62.38,1.1v4.13c0,.47-.13.84-.38,1.1-.26.25-.62.38-1.1.38ZM27.54,9.52v3.95c0,.17.08.25.25.25h1.47c.17,0,.25-.08.25-.25v-3.95c0-.17-.09-.25-.25-.25h-1.47c-.17,0-.25.08-.25.25Z" style="fill:#00ffc2; stroke-width:0px;"/></svg>
